modules/themify-icons/icons/layout-tab-v.svg

<?xml version="1.0" encoding="utf-8"?>
<!-- Generated by IcoMoon.io -->
<!DOCTYPE svg PUBLIC "-//W3C//DTD SVG 1.1//EN" "http://www.w3.org/Graphics/SVG/1.1/DTD/svg11.dtd">
<svg version="1.1" xmlns="http://www.w3.org/2000/svg" xmlns:xlink="http://www.w3.org/1999/xlink" width="17" height="17" viewBox="0 0 17 17">
<g>
</g>
	<path d="M6 1v1h-6v4h1v4h5v6.018h11v-15.018h-11zM2 6h4v1h-4v-1zM2 9v-1h4v1h-4zM16 15.018h-9v-10.018h-6v-2h6v-1h9v13.018z" fill="#000000" />
</svg>

<svg xmlns="http://www.w3.org/2000/svg" width="17" height="17" viewBox="0 0 17 17"><path d="M6 1v1H0v4h1v4h5v6.018h11V1H6zM2 6h4v1H2V6zm0 3V8h4v1H2zm14 6.018H7V5H1V3h6V2h9v13.018z"/></svg>
